icons/anchor-alt.svg

<svg width="24" height="24" viewBox="0 0 24 24" fill="none" xmlns="http://www.w3.org/2000/svg">
<path d="M12 6.8C13.0042 6.8 13.8182 5.94934 13.8182 4.9C13.8182 3.85066 13.0042 3 12 3C10.9959 3 10.1818 3.85066 10.1818 4.9C10.1818 5.94934 10.9959 6.8 12 6.8Z" stroke="#1E293B" stroke-width="2" stroke-linecap="round" stroke-linejoin="round"/>
<path d="M12 21.9998V6.7998" stroke="#1E293B" stroke-width="2" stroke-linecap="round" stroke-linejoin="round"/>
<path d="M8.36365 10.6001H15.6364" stroke="#1E293B" stroke-width="2" stroke-linecap="round" stroke-linejoin="round"/>
<path d="M12 22.0001C12 20.9923 12.3831 20.0258 13.0651 19.3131C13.747 18.6005 14.6719 18.2001 15.6364 18.2001C16.7937 18.2001 17.9036 17.7197 18.7219 16.8645C19.5403 16.0094 20 14.8495 20 13.6401" stroke="#1E293B" stroke-width="2" stroke-linecap="round" stroke-linejoin="round"/>
<path d="M12 22.0001C12 20.9923 11.6169 20.0258 10.9349 19.3131C10.253 18.6005 9.32806 18.2001 8.36364 18.2001C7.20633 18.2001 6.09642 17.7197 5.27808 16.8645C4.45974 16.0094 4 14.8495 4 13.6401" stroke="#1E293B" stroke-width="2" stroke-linecap="round" stroke-linejoin="round"/>
</svg>

<svg
  width="24"
  height="24"
  viewBox="0 0 24 24"
  xmlns="http://www.w3.org/2000/svg"
  fill="none"
  stroke="currentColor"
  stroke-width="2"
  stroke-linecap="round"
  stroke-linejoin="round"
>
  <path d="M12 6.8c1.004 0 1.818-.85 1.818-1.9 0-1.05-.814-1.9-1.818-1.9s-1.818.85-1.818 1.9c0 1.05.814 1.9 1.818 1.9z" />
  <path d="M12 22V6.8" />
  <path d="M8.364 10.6h7.272" />
  <path d="M12 22c0-1.008.383-1.974 1.065-2.687a3.559 3.559 0 0 1 2.571-1.113 4.27 4.27 0 0 0 3.086-1.335A4.666 4.666 0 0 0 20 13.64" />
  <path d="M12 22a3.888 3.888 0 0 0-1.065-2.687A3.559 3.559 0 0 0 8.364 18.2a4.27 4.27 0 0 1-3.086-1.335A4.666 4.666 0 0 1 4 13.64" />
</svg>
